X: 30212
T: BISCUIT MARCH
C:
%R: march
B: Elias Howe "The Musician's Companion" Part 3 1844 p.21 #2
S: http://imslp.org/wiki/The_Musician's_Companion_(Howe,_Elias)
S: https://archive.org/stream/firstthirdpartof03howe/#page/66/mode/1up
Z: 2016 John Chambers <jc:trillian.mit.edu>
M: C
L: 1/8
K: D
% - - - - - - - - - - - - - - - - - - - - - - - - -
A,D/E/ |\
F2F>F F2 d>B | A2F>F F2D>E | F2 d>B A>FD>F | E2E>E E>A,D>E |\
F2F>G AFED | dcde f2f>e | dcBA GFEF | D2D>D D2 :|
|: (3(AAA) |\
F2 (3(AAA) E2 (3(AAA) | F2D>D D2 AB/c/ | dcBA GAFA | E2E>E E2 (3(A,A,A,) |\
D2 (3(A,A,A,) F2 (3(DDD) | AFdF A2 AB/c/ | dcBA GBEA | D2D>D D2 :|
% - - - - - - - - - - - - - - - - - - - - - - - - -
